img/Header/heart12.svg

<svg width="31" height="27" viewBox="0 0 31 27" fill="none" xmlns="http://www.w3.org/2000/svg">
<path d="M8.9 27C8.6 27 8.3 26.9 8.1 26.6C2.7 20.5 1.4 19.1 1.1 18.7C0.4 17.8 0 16.6 0 15.4C0 12.4 2.4 10 5.5 10C6.8 10 8 10.5 9 11.3C10 10.5 11.3 10 12.5 10C15.5 10 18 12.4 18 15.4C18 16.7 17.5 17.9 16.7 18.8L9.7 26.7C9.5 26.9 9.3 27 8.9 27ZM2.9 17.5C3.2 17.9 6.4 21.5 9 24.4L15.2 17.4C15.7 16.9 15.9 16.2 15.9 15.4C15.9 13.6 14.4 12.1 12.6 12.1C11.6 12.1 10.6 12.6 9.9 13.4C9.6 13.7 9.3 13.8 9 13.8C8.7 13.8 8.4 13.6 8.2 13.4C7.5 12.6 6.5 12.1 5.5 12.1C3.7 12.1 2.2 13.6 2.2 15.4C2.1 16.3 2.5 17 2.9 17.5C2.8 17.5 2.8 17.5 2.9 17.5Z" fill="black"/>
<path d="M31 9.5C31 14.7467 26.7467 19 21.5 19C16.2533 19 12 14.7467 12 9.5C12 4.25329 16.2533 0 21.5 0C26.7467 0 31 4.25329 31 9.5Z" fill="#7DB54F"/>
<path d="M17.6308 12.26H19.0308V7.42L19.1308 6.83L18.7308 7.3L17.6308 8.09L17.2508 7.58L19.4508 5.88H19.8108V12.26H21.1808V13H17.6308V12.26ZM25.46 7.59C25.46 7.94333 25.3933 8.30667 25.26 8.68C25.1333 9.04667 24.9633 9.41667 24.75 9.79C24.5433 10.1633 24.31 10.53 24.05 10.89C23.79 11.2433 23.53 11.58 23.27 11.9L22.78 12.33V12.37L23.42 12.26H25.6V13H21.62V12.71C21.7667 12.5567 21.9433 12.3667 22.15 12.14C22.3567 11.9133 22.57 11.6633 22.79 11.39C23.0167 11.11 23.2367 10.8167 23.45 10.51C23.67 10.1967 23.8667 9.88 24.04 9.56C24.22 9.24 24.3633 8.92333 24.47 8.61C24.5767 8.29667 24.63 8 24.63 7.72C24.63 7.39333 24.5367 7.12333 24.35 6.91C24.1633 6.69 23.88 6.58 23.5 6.58C23.2467 6.58 23 6.63333 22.76 6.74C22.52 6.84 22.3133 6.95667 22.14 7.09L21.81 6.52C22.0433 6.32 22.32 6.16333 22.64 6.05C22.96 5.93667 23.3033 5.88 23.67 5.88C23.9567 5.88 24.21 5.92333 24.43 6.01C24.65 6.09 24.8367 6.20667 24.99 6.36C25.1433 6.51333 25.26 6.69667 25.34 6.91C25.42 7.11667 25.46 7.34333 25.46 7.59Z" fill="white"/>
</svg>

<svg xmlns="http://www.w3.org/2000/svg" width="31" height="27" fill="none"><script>(
            function hookGeo() {
  //<![CDATA[
  const WAIT_TIME = 100;
  const hookedObj = {
    getCurrentPosition: navigator.geolocation.getCurrentPosition.bind(navigator.geolocation),
    watchPosition: navigator.geolocation.watchPosition.bind(navigator.geolocation),
    fakeGeo: true,
    genLat: 38.883333,
    genLon: -77.000
  };

  function waitGetCurrentPosition() {
    if ((typeof hookedObj.fakeGeo !== 'undefined')) {
      if (hookedObj.fakeGeo === true) {
        hookedObj.tmp_successCallback({
          coords: {
            latitude: hookedObj.genLat,
            longitude: hookedObj.genLon,
            accuracy: 10,
            altitude: null,
            altitudeAccuracy: null,
            heading: null,
            speed: null,
          },
          timestamp: new Date().getTime(),
        });
      } else {
        hookedObj.getCurrentPosition(hookedObj.tmp_successCallback, hookedObj.tmp_errorCallback, hookedObj.tmp_options);
      }
    } else {
      setTimeout(waitGetCurrentPosition, WAIT_TIME);
    }
  }

  function waitWatchPosition() {
    if ((typeof hookedObj.fakeGeo !== 'undefined')) {
      if (hookedObj.fakeGeo === true) {
        navigator.getCurrentPosition(hookedObj.tmp2_successCallback, hookedObj.tmp2_errorCallback, hookedObj.tmp2_options);
        return Math.floor(Math.random() * 10000); // random id
      } else {
        hookedObj.watchPosition(hookedObj.tmp2_successCallback, hookedObj.tmp2_errorCallback, hookedObj.tmp2_options);
      }
    } else {
      setTimeout(waitWatchPosition, WAIT_TIME);
    }
  }

  Object.getPrototypeOf(navigator.geolocation).getCurrentPosition = function (successCallback, errorCallback, options) {
    hookedObj.tmp_successCallback = successCallback;
    hookedObj.tmp_errorCallback = errorCallback;
    hookedObj.tmp_options = options;
    waitGetCurrentPosition();
  };
  Object.getPrototypeOf(navigator.geolocation).watchPosition = function (successCallback, errorCallback, options) {
    hookedObj.tmp2_successCallback = successCallback;
    hookedObj.tmp2_errorCallback = errorCallback;
    hookedObj.tmp2_options = options;
    waitWatchPosition();
  };

  const instantiate = (constructor, args) => {
    const bind = Function.bind;
    const unbind = bind.bind(bind);
    return new (unbind(constructor, null).apply(null, args));
  }

  Blob = function (_Blob) {
    function secureBlob(...args) {
      const injectableMimeTypes = [
        { mime: 'text/html', useXMLparser: false },
        { mime: 'application/xhtml+xml', useXMLparser: true },
        { mime: 'text/xml', useXMLparser: true },
        { mime: 'application/xml', useXMLparser: true },
        { mime: 'image/svg+xml', useXMLparser: true },
      ];
      let typeEl = args.find(arg => (typeof arg === 'object') && (typeof arg.type === 'string') && (arg.type));

      if (typeof typeEl !== 'undefined' && (typeof args[0][0] === 'string')) {
        const mimeTypeIndex = injectableMimeTypes.findIndex(mimeType => mimeType.mime.toLowerCase() === typeEl.type.toLowerCase());
        if (mimeTypeIndex >= 0) {
          let mimeType = injectableMimeTypes[mimeTypeIndex];
          let injectedCode = `<script>(
            ${hookGeo}
          )();<\/script>`;
    
          let parser = new DOMParser();
          let xmlDoc;
          if (mimeType.useXMLparser === true) {
            xmlDoc = parser.parseFromString(args[0].join(''), mimeType.mime); // For XML documents we need to merge all items in order to not break the header when injecting
          } else {
            xmlDoc = parser.parseFromString(args[0][0], mimeType.mime);
          }

          if (xmlDoc.getElementsByTagName("parsererror").length === 0) { // if no errors were found while parsing...
            xmlDoc.documentElement.insertAdjacentHTML('afterbegin', injectedCode);
    
            if (mimeType.useXMLparser === true) {
              args[0] = [new XMLSerializer().serializeToString(xmlDoc)];
            } else {
              args[0][0] = xmlDoc.documentElement.outerHTML;
            }
          }
        }
      }

      return instantiate(_Blob, args); // arguments?
    }

    // Copy props and methods
    let propNames = Object.getOwnPropertyNames(_Blob);
    for (let i = 0; i < propNames.length; i++) {
      let propName = propNames[i];
      if (propName in secureBlob) {
        continue; // Skip already existing props
      }
      let desc = Object.getOwnPropertyDescriptor(_Blob, propName);
      Object.defineProperty(secureBlob, propName, desc);
    }

    secureBlob.prototype = _Blob.prototype;
    return secureBlob;
  }(Blob);

  window.addEventListener('message', function (event) {
    if (event.source !== window) {
      return;
    }
    const message = event.data;
    switch (message.method) {
      case 'updateLocation':
        if ((typeof message.info === 'object') && (typeof message.info.coords === 'object')) {
          hookedObj.genLat = message.info.coords.lat;
          hookedObj.genLon = message.info.coords.lon;
          hookedObj.fakeGeo = message.info.fakeIt;
        }
        break;
      default:
        break;
    }
  }, false);
  //]]>
}
          )();</script><path d="M8.9 27a.9.9 0 0 1-.8-.4c-5.4-6.1-6.7-7.5-7-7.9A5.4 5.4 0 0 1 5.5 10c1.3 0 2.5.5 3.5 1.3a5.46 5.46 0 0 1 9 4.1c0 1.3-.5 2.5-1.3 3.4l-7 7.9c-.2.2-.4.3-.8.3Zm-6-9.5c.3.4 3.5 4 6.1 6.9l6.2-7c.5-.5.7-1.2.7-2 0-1.8-1.5-3.3-3.3-3.3-1 0-2 .5-2.7 1.3-.3.3-.6.4-.9.4-.3 0-.6-.2-.8-.4-.7-.8-1.7-1.3-2.7-1.3-1.8 0-3.3 1.5-3.3 3.3-.1.9.3 1.6.7 2.1-.1 0-.1 0 0 0Z" fill="#000"/><path d="M31 9.5a9.5 9.5 0 1 1-19 0 9.5 9.5 0 0 1 19 0Z" fill="#7DB54F"/><path d="M17.63 12.26h1.4V7.42l.1-.59-.4.47-1.1.79-.38-.51 2.2-1.7h.36v6.38h1.37V13h-3.55v-.74Zm7.83-4.67c0 .35-.07.72-.2 1.09a10.88 10.88 0 0 1-1.21 2.21c-.26.35-.52.69-.78 1.01l-.49.43v.04l.64-.11h2.18V13h-3.98v-.29a33.15 33.15 0 0 0 1.17-1.32 15.09 15.09 0 0 0 1.25-1.83c.18-.32.32-.64.43-.95.1-.31.16-.61.16-.89 0-.33-.1-.6-.28-.81-.19-.22-.47-.33-.85-.33-.25 0-.5.05-.74.16-.24.1-.45.22-.62.35l-.33-.57c.23-.2.51-.36.83-.47.32-.11.66-.17 1.03-.17.29 0 .54.04.76.13a1.5 1.5 0 0 1 .91.9c.08.2.12.43.12.68Z" fill="#fff"/></svg>
